src/assets/images/blocks/ecommerce/storefront/storefront-1-23.svg

<svg fill="none" height="24" viewBox="0 0 36 24" width="36" xmlns="http://www.w3.org/2000/svg"><path d="m0 3c0-1.65685 1.34315-3 3-3h30c1.6569 0 3 1.34315 3 3v18c0 1.6569-1.3431 3-3 3h-30c-1.65685 0-3-1.3431-3-3z" fill="#fdeace"/><path d="m21.7565 4.89524-7.7467.02664.2347 14.18232 7.7468-.0266z" fill="#ff5f00"/><path d="m14.5202 12.0431c-.0479-2.88458 1.2442-5.44765 3.2682-7.11017-1.5277-1.19883-3.443-1.91973-5.5192-1.91262-4.91868.01684-8.831 4.06888-8.74805 9.06049.08295 4.9915 4.12949 9.0163 9.04815 8.9995 2.0762-.0071 3.9673-.7411 5.4551-1.9502-2.0786-1.6234-3.4563-4.2024-3.5042-7.087z" fill="#eb001b"/><path d="m32.4806 11.9221c.083 4.9916-3.8293 9.0437-8.748 9.0605-2.0762.0071-3.9915-.7138-5.5193-1.9126 2.0487-1.6626 3.3162-4.2256 3.2683-7.1102-.0479-2.88458-1.4252-5.4385-3.5042-7.08698 1.4877-1.20916 3.3789-1.9431 5.4551-1.95021 4.9186-.01684 8.9656 4.03303 9.0481 8.99949z" fill="#f79e1b"/></svg>

<svg width="36" height="24" viewBox="0 0 36 24" fill="none" xmlns="http://www.w3.org/2000/svg">
<path d="M0 3C0 1.34315 1.34315 0 3 0H33C34.6569 0 36 1.34315 36 3V21C36 22.6569 34.6569 24 33 24H3C1.34315 24 0 22.6569 0 21V3Z" fill="#FDEACE"/>
<path d="M21.7565 4.89524L14.0098 4.92188L14.2445 19.1042L21.9913 19.0776L21.7565 4.89524Z" fill="#FF5F00"/>
<path d="M14.5202 12.0431C14.4723 9.15852 15.7644 6.59545 17.7884 4.93293C16.2607 3.7341 14.3454 3.0132 12.2692 3.02031C7.35052 3.03715 3.4382 7.08919 3.52115 12.0808C3.6041 17.0723 7.65064 21.0971 12.5693 21.0803C14.6455 21.0732 16.5366 20.3392 18.0244 19.1301C15.9458 17.5067 14.5681 14.9277 14.5202 12.0431Z" fill="#EB001B"/>
<path d="M32.4806 11.9221C32.5636 16.9137 28.6513 20.9658 23.7326 20.9826C21.6564 20.9897 19.7411 20.2688 18.2133 19.07C20.262 17.4074 21.5295 14.8444 21.4816 11.9598C21.4337 9.07522 20.0564 6.5213 17.9774 4.87282C19.4651 3.66366 21.3563 2.92972 23.4325 2.92261C28.3511 2.90577 32.3981 6.95564 32.4806 11.9221Z" fill="#F79E1B"/>
</svg>
